X: 1
T: Jane's Fancy
M: C|
L: 1/8
C: Alf Gray
S: Noel Jackson <noelbats@onetel.com> tradtunes 2012-12-11
N: "Nice uncomplicated rant which the Angels of the North play between Come Dance and Sing and The Dinnington Rant."
K: G
|: DD \
| "G"G2B2 B2AG | "Am"A2E2 E2DD |  "G"G2B2 cBAG | "D7"F2A2 A2DD |
| "G"G2B2 d2BA | "Em"G2E2 E2FG | "D7"A2B2 dcBA |  "G"B2G2 G2  :|
|: Bc \
| "G"d2g2 g3d | "C"e2g2 g2fe | "G"d2B2     cBAG | "D7"B2A2 A2Bc |
| "G"d2g2 g3d | "C"e2g2 g2fe | "G"d2B2 "D7"dcBA |  "G"B2G2 G2  :|
